asset/media/noto-v1_mobile-phone.svg

<svg  width="32" height="32" viewBox="0 0 64 64" fill="none" style="--i:0" xmlns="http://www.w3.org/2000/svg">
<path d="M44.2299 3.16486C42.1099 2.21486 35.9249 1.60986 31.9999 1.60986C28.0799 1.60986 21.8849 2.21486 19.7699 3.16486C17.6949 4.09486 16.8599 5.93486 16.8599 7.65986V56.3349C16.8599 58.0649 17.6949 59.8999 19.7699 60.8299C21.8849 61.7799 28.0799 62.3849 31.9999 62.3849C35.9249 62.3849 42.1099 61.7799 44.2299 60.8299C46.3049 59.8999 47.1399 58.0599 47.1399 56.3349V7.66486C47.1399 5.93486 46.3049 4.09986 44.2299 3.16486Z" fill="#006CA2"/>
<path d="M34.7852 5.37496H29.2202C29.0823 5.37496 28.95 5.32018 28.8525 5.22266C28.755 5.12514 28.7002 4.99287 28.7002 4.85496C28.7002 4.71705 28.755 4.58478 28.8525 4.48727C28.95 4.38975 29.0823 4.33496 29.2202 4.33496H34.7852C35.0752 4.33496 35.3052 4.56496 35.3052 4.85496C35.3052 5.13996 35.0752 5.37496 34.7852 5.37496Z" fill="white"/>
<path d="M41.9452 6.24C42.4947 6.24 42.9402 5.79452 42.9402 5.245C42.9402 4.69548 42.4947 4.25 41.9452 4.25C41.3957 4.25 40.9502 4.69548 40.9502 5.245C40.9502 5.79452 41.3957 6.24 41.9452 6.24Z" fill="white"/>
<path d="M22 9H46.785V50.025H22V9Z" fill="url(#paint0_linear_145_1551)"/>
<path d="M24.1849 54.4652V54.8152L23.4199 54.2602L24.1849 53.7002V54.0502H24.6249C25.4849 54.0502 26.0399 54.3052 26.0399 55.0452C26.0399 55.7902 25.4849 56.0452 24.6249 56.0452H23.6349V55.6302H24.6249C25.3549 55.6302 25.6249 55.4702 25.6249 55.0452C25.6249 54.6252 25.3599 54.4652 24.6249 54.4652H24.1849ZM33.4549 55.9052H30.5899V54.4602L32.0249 53.8552L33.4599 54.4602V55.9052H33.4549ZM31.0049 55.4852H33.0399V54.7302L32.0249 54.3002L31.0049 54.7302V55.4852ZM40.2749 55.9052H37.8749V54.3852H40.2749V55.9052ZM38.2949 55.4852H39.8649V54.8002H38.2949V55.4852Z" fill="white"/>
<path d="M40.9551 55.0504H40.5401V54.1504H38.7651V53.7354H40.9551V55.0504Z" fill="white"/>
<defs>
<linearGradient id="paint0_linear_145_1551" x1="34.395" y1="50.0285" x2="34.395" y2="9.002" gradientUnits="userSpaceOnUse">
<stop stop-color="white"/>
<stop offset="1" stop-color="#00A0D6"/>
</linearGradient>
</defs>
</svg>

<svg xmlns="http://www.w3.org/2000/svg" width="32" height="32" fill="none" style="--i:0" viewBox="0 0 64 64"><path fill="#006CA2" d="M44.23 3.165C42.11 2.215 35.925 1.61 32 1.61c-3.92 0-10.115.605-12.23 1.555-2.075.93-2.91 2.77-2.91 4.495v48.675c0 1.73.835 3.565 2.91 4.495 2.115.95 8.31 1.555 12.23 1.555 3.925 0 10.11-.605 12.23-1.555 2.075-.93 2.91-2.77 2.91-4.495V7.665c0-1.73-.835-3.565-2.91-4.5Z"/><path fill="#fff" d="M34.785 5.375H29.22a.52.52 0 1 1 0-1.04h5.565a.52.52 0 1 1 0 1.04ZM41.945 6.24a.995.995 0 1 0 0-1.99.995.995 0 0 0 0 1.99Z"/><path fill="url(#a)" d="M22 9h24.785v41.025H22V9Z"/><path fill="#fff" d="M24.185 54.465v.35l-.765-.555.765-.56v.35h.44c.86 0 1.415.255 1.415.995 0 .745-.555 1-1.415 1h-.99v-.415h.99c.73 0 1-.16 1-.585 0-.42-.265-.58-1-.58h-.44Zm9.27 1.44H30.59V54.46l1.435-.605 1.435.605v1.445h-.005Zm-2.45-.42h2.035v-.755l-1.015-.43-1.02.43v.755Zm9.27.42h-2.4v-1.52h2.4v1.52Zm-1.98-.42h1.57V54.8h-1.57v.685Z"/><path fill="#fff" d="M40.955 55.05h-.415v-.9h-1.775v-.415h2.19v1.315Z"/><defs><linearGradient id="a" x1="34.395" x2="34.395" y1="50.029" y2="9.002" gradientUnits="userSpaceOnUse"><stop stop-color="#fff"/><stop offset="1" stop-color="#00A0D6"/></linearGradient></defs></svg>
